!!!Genre:	Vol'ner (Freylekhs)
!!!Mode:	Minor
!!!Listening/dance:	dance
!!!One_Mode:	yes
**kern
*I"P1
*clefG2
*k[b-e-]
*g:
*M2/4
*>A
=1
(8qd/
16gLL)
16d
16g
16b-JJ
8ddL
8ddJ
=2
8ddL
16ccL
16b-JJ
16ccLL
16ddJ
8ccJ
=3
(4cc^
8ddL)
8gJ
*>A1
=4
16b-LL
16cc
16b-
16aJJ
8gL
8dJ
*>A2
=5:|!
16b-LL
16cc
16b-
16aJJ
4g
=6!|:
*>B
16b-LL
16g
16b-
16ddJJ
(8qdd/
16ccLL)
16b-
16a
16gJJ
=7
16b-LL
16g
16b-
16ddJJ
(8qdd/
16ccLL)
16b-
16a
16gJJ
=8
16b-LL
16g
16b-
16ddJJ
8qdd/
16ccLL
16b-
16a
16gJJ
*>B1
=9
4a
4dd
*>B2
=10:|!
4g
4gg
=11!|:
*>C
16b-LL
16dd
16b-
16ddJJ
8ee-L
(8qee-/
16ddL)
16ccJJ
=12
16b-LL
16dd
16b-
16ddJJ
8ee-L
16ddL
16ccJJ
=13
16gLL
16cc
16g
16ccJJ
(8.ccTL
16b-Jk)
*>C1
=14
(24ddLL
24cc
24b-J
24b-L
24a
24gJJ)
4b-
*>C2
=15:|!
(24ddLL
24cc
24b-J
24b-L
24a
24gJJ)
4g
==
*-
